lib/brands/icons/percy.svg

<svg xmlns="http://www.w3.org/2000/svg" fill="none" aria-hidden="true" viewBox="0 0 48 48"><g id="percy-Icon"><path id="Vector" fill="#5C007B" d="M25.8511 9.59998C28.8839 10.95 31.5648 13.0435 31.5648 13.0435C31.1451 11.3838 30.8412 10.4955 30.8412 10.4955C33.331 11.85 37.1133 14.2429 38.399 15.45C39.145 15.4151 39.7418 15.2277 40.1245 15.0675C40.7768 14.7944 41.325 15.4652 41.5325 16.1476C41.7389 16.8264 41.9872 17.8741 41.9986 19.0105C42.0114 20.2774 41.7302 21.372 41.1629 22.2641C40.0288 24.0476 37.7673 25.2236 35.3737 26.4682C32.876 27.7669 30.7924 29.0848 29.1638 31.509C28.3227 32.7611 27.6651 34.1571 27.2297 35.6062C26.7652 37.1492 26.3982 38.4 25.3543 38.4C24.4096 38.4 23.846 37.183 23.4199 36.4957C22.6004 35.1739 21.5812 33.5299 19.9311 33.3909C18.4655 33.1737 17.2625 33.7162 16.3932 34.433C15.9635 34.7872 15.6076 35.1902 15.3348 35.5763C15.0905 35.8686 14.8603 36.1684 14.6365 36.46C13.9527 37.3515 13.362 38.1216 12.5817 38.3448C12.4541 38.3815 12.3286 38.4 12.2084 38.4C12.1086 38.4 11.9936 38.3865 11.8731 38.3484L11.8711 38.3515C9.4117 37.631 9.28479 33.1335 9.28479 33.1335C8.10235 33.4151 6.88135 34.1927 6.88135 34.1927C7.98242 30.4207 10.0929 27.9557 10.0929 27.9557C8.46079 27.8276 6.09682 28.27 6.00197 28.2879L5.99902 28.2884C9.28479 24.06 11.5021 22.5104 11.5021 22.5104C9.7968 21.7655 7.62827 21.3771 7.54047 21.3616L7.53771 21.3611C11.5401 19.05 15.5119 17.9191 15.5119 17.9191C15.1745 17.6006 14.4951 17.2393 13.7917 16.917L13.6834 16.8677C12.6169 16.3865 11.533 16.0043 11.533 16.0043C14.2963 15.2093 19.1871 14.7126 19.1871 14.7126C18.9008 14.4713 18.5146 14.2241 18.1056 13.9927L18.0108 13.9396C17.9316 13.8956 17.8517 13.8523 17.7718 13.8097L17.6758 13.759C16.7329 13.2647 15.8103 12.8906 15.8103 12.8906C19.9311 12.75 22.6904 12.8906 22.6904 12.8906C21.9629 11.8909 20.088 10.5827 20.088 10.5827C23.9921 10.95 26.7751 11.9188 26.7751 11.9188C26.748 11.7019 26.6066 11.3119 26.4422 10.9129L26.4039 10.8207C26.391 10.7899 26.378 10.7592 26.365 10.7286L26.3258 10.6372C26.0902 10.0909 25.8511 9.59998 25.8511 9.59998ZM19.5687 34.1881C19.4527 34.4981 19.3224 34.8336 19.1837 35.1693C18.6496 36.4622 18.0106 37.7986 17.3213 37.9074C17.2804 37.9138 17.2387 37.9172 17.1976 37.9172C16.6903 37.9172 16.2355 37.449 15.8103 36.4876C16.5581 35.4333 18.0419 34.2054 19.5687 34.1881ZM31.4244 30.4207C31.0059 31.9899 30.95 33.5659 30.9054 34.832L30.9053 34.8332C30.8765 35.6518 30.8516 36.3586 30.7347 36.8732C30.5782 37.5623 30.2353 37.9118 29.7153 37.9118L29.6975 37.9116C29.1958 37.9035 28.6626 37.4736 28.0783 36.6024C28.4226 34.6299 29.7854 32.1104 31.4244 30.4207ZM14.46 25.6923L11.399 30.3L14.2834 27.6627L14.46 25.6923ZM23.2276 22.1623L16.2936 25.4738L22.0728 24.06L23.2276 22.1623ZM17.025 21.3611L11.533 25.3002L16.0072 23.3307L17.025 21.3611ZM29.4476 20.2062L23.288 20.8696L27.7909 21.1332L29.4476 20.2062ZM22.6904 18.3985L16.5308 19.0617L21.0572 19.4929L22.6904 18.3985ZM31.3666 17.6264L26.7751 18.6L30.3476 18.3985L31.3666 17.6264ZM20.9335 16.0043L25.7086 17.2261L27.7908 16.5348L20.9335 16.0043ZM25.8511 13.65L29.7153 15.45L31.5648 15.0675L25.8511 13.65Z"/></g></svg>

<svg xmlns="http://www.w3.org/2000/svg" fill="none" aria-hidden="true" viewBox="0 0 48 48"><path fill="#5C007B" d="M25.851 9.6c3.033 1.35 5.714 3.444 5.714 3.444-.42-1.66-.724-2.549-.724-2.549 2.49 1.355 6.272 3.748 7.558 4.955a5.12 5.12 0 0 0 1.725-.382c.653-.274 1.201.397 1.408 1.08.207.678.455 1.726.467 2.863.012 1.266-.269 2.361-.836 3.253-1.134 1.784-3.396 2.96-5.79 4.204-2.497 1.299-4.58 2.617-6.21 5.041a15.258 15.258 0 0 0-1.933 4.097c-.465 1.543-.832 2.794-1.876 2.794-.944 0-1.508-1.217-1.934-1.904-.82-1.322-1.839-2.966-3.489-3.105-1.466-.217-2.669.325-3.538 1.042a5.93 5.93 0 0 0-1.058 1.143 27.02 27.02 0 0 0-.699.884c-.683.892-1.274 1.662-2.054 1.885a1.353 1.353 0 0 1-.374.055c-.1 0-.214-.014-.335-.052l-.002.004c-2.46-.721-2.586-5.218-2.586-5.218-1.183.281-2.404 1.059-2.404 1.059 1.101-3.772 3.212-6.237 3.212-6.237-1.632-.128-3.996.314-4.091.332h-.003c3.286-4.228 5.503-5.778 5.503-5.778-1.705-.745-3.874-1.133-3.962-1.148h-.002c4.002-2.312 7.974-3.443 7.974-3.443-.338-.318-1.017-.68-1.72-1.002l-.109-.05c-1.066-.48-2.15-.863-2.15-.863 2.763-.795 7.654-1.291 7.654-1.291a7.372 7.372 0 0 0-1.081-.72l-.095-.053c-.08-.044-.16-.088-.24-.13l-.095-.051c-.943-.494-1.866-.868-1.866-.868 4.121-.141 6.88 0 6.88 0-.727-1-2.602-2.308-2.602-2.308 3.904.367 6.687 1.336 6.687 1.336-.027-.217-.168-.607-.333-1.006l-.038-.092-.039-.092-.04-.092c-.235-.546-.474-1.037-.474-1.037ZM19.57 34.188c-.116.31-.247.646-.385.981-.534 1.293-1.173 2.63-1.863 2.738a.804.804 0 0 1-.123.01c-.508 0-.963-.468-1.388-1.43.748-1.054 2.232-2.282 3.759-2.299Zm11.855-3.767c-.418 1.569-.474 3.145-.519 4.411v.001c-.029.819-.053 1.526-.17 2.04-.157.69-.5 1.039-1.02 1.039h-.017c-.502-.008-1.035-.438-1.62-1.31.345-1.972 1.707-4.492 3.346-6.181ZM14.46 25.692 11.399 30.3l2.884-2.637.177-1.97Zm8.768-3.53-6.934 3.312 5.779-1.414 1.155-1.898Zm-6.203-.8L11.533 25.3l4.474-1.97 1.018-1.969Zm12.423-1.156-6.16.664 4.503.263 1.657-.927Zm-6.758-1.808-6.16.664 4.527.43 1.633-1.094Zm8.677-.772-4.592.974 3.573-.202 1.019-.772Zm-10.434-1.622 4.776 1.222 2.082-.691-6.858-.53Zm4.918-2.354 3.864 1.8 1.85-.382-5.714-1.418Z"/></svg>
